X: 6793
T: Character's
R: polka
M: 2/4
K: Amajor
|cB/c/ ec|BA F2|B2 BA/B/|cB c/d/e|
c2 cB/c/|ec BA|fa ec|B2 B2|
cB/c/ ec|BA F2|B2 BA/B/|cB B/A/F|
E2 EF|AB ce|fa ec|Be f2||
|:a2c2|cB B2|FB BA/B/|cB B/A/F|
E2 EF|AB ce|fa ec|1 Be fg:|2 BA FE||

